dist/svgs/lock-full.svg

<!-- Generated by IcoMoon.io -->
<svg version="1.1" xmlns="http://www.w3.org/2000/svg" width="24" height="24" viewBox="0 0 24 24">
<title>lock-full</title>
<path d="M20 8h-2v-2c0-3.309-2.691-6-6-6s-6 2.691-6 6v2h-2c-0.552 0-1 0.448-1 1v14c0 0.552 0.448 1 1 1h16c0.552 0 1-0.448 1-1v-14c0-0.552-0.448-1-1-1zM13 17.816v2.184h-2v-2.184c-1.161-0.414-2-1.514-2-2.816 0-1.654 1.346-3 3-3s3 1.346 3 3c0 1.302-0.838 2.402-2 2.816zM16 8h-8v-2c0-2.206 1.794-4 4-4s4 1.794 4 4v2z"></path>
</svg>

<svg xmlns="http://www.w3.org/2000/svg" width="24" height="24" viewBox="0 0 24 24"><title>lock-full</title><path d="M20 8h-2V6c0-3.309-2.691-6-6-6S6 2.691 6 6v2H4a1 1 0 0 0-1 1v14a1 1 0 0 0 1 1h16a1 1 0 0 0 1-1V9a1 1 0 0 0-1-1zm-7 9.816V20h-2v-2.184A2.996 2.996 0 0 1 9 15c0-1.654 1.346-3 3-3s3 1.346 3 3a2.995 2.995 0 0 1-2 2.816zM16 8H8V6c0-2.206 1.794-4 4-4s4 1.794 4 4v2z"/></svg>
